flaticon/household/armchair-4.svg

<svg xmlns="http://www.w3.org/2000/svg" width="32" height="32" viewBox="0 0 24 24">
    <path d="M 23.96875 12.472656 C 23.832031 11.394531 23.1875 10.460938 22.285156 9.917969 C 22.355469 9.871094 22.425781 9.820312 22.488281 9.761719 C 22.941406 9.371094 23.199219 8.800781 23.199219 8.203125 L 23.199219 6.421875 C 23.199219 6.285156 23.195312 6.152344 23.1875 6.019531 C 23.070312 4.300781 22.144531 2.777344 20.65625 1.847656 C 19.117188 0.882812 17.199219 0.714844 15.523438 1.390625 L 15.453125 1.421875 C 13.226562 2.324219 10.777344 2.324219 8.546875 1.421875 L 8.480469 1.390625 C 6.804688 0.714844 4.886719 0.882812 3.347656 1.84375 C 1.855469 2.777344 0.933594 4.300781 0.816406 6.023438 C 0.808594 6.152344 0.804688 6.285156 0.804688 6.421875 L 0.804688 8.203125 C 0.804688 8.792969 1.046875 9.335938 1.488281 9.726562 C 1.5625 9.792969 1.648438 9.851562 1.730469 9.90625 C 0.820312 10.449219 0.167969 11.390625 0.03125 12.472656 C -0.0976562 13.484375 0.175781 14.457031 0.796875 15.210938 C 1.3125 15.832031 2.011719 16.238281 2.800781 16.378906 L 2.800781 20.046875 C 2.800781 20.9375 3.535156 21.6875 4.449219 21.796875 C 4.621094 22.53125 5.292969 23.019531 6.203125 23.019531 C 7.101562 23.019531 7.765625 22.539062 7.949219 21.820312 L 16.054688 21.820312 C 16.234375 22.539062 16.898438 23.019531 17.800781 23.019531 C 18.710938 23.019531 19.382812 22.53125 19.554688 21.796875 C 20.464844 21.6875 21.199219 20.933594 21.199219 20.046875 L 21.199219 16.378906 C 21.988281 16.238281 22.691406 15.832031 23.203125 15.210938 C 23.824219 14.457031 24.097656 13.484375 23.96875 12.472656 Z M 3.074219 9.445312 C 2.683594 9.492188 2.300781 9.378906 2.019531 9.125 C 1.75 8.890625 1.601562 8.5625 1.601562 8.203125 L 1.601562 6.421875 C 1.601562 6.304688 1.605469 6.1875 1.613281 6.074219 C 1.714844 4.613281 2.5 3.316406 3.769531 2.523438 C 5.09375 1.699219 6.738281 1.550781 8.175781 2.132812 L 8.25 2.160156 C 10.667969 3.144531 13.335938 3.144531 15.753906 2.160156 L 15.824219 2.132812 C 17.265625 1.550781 18.910156 1.695312 20.234375 2.523438 C 21.503906 3.316406 22.289062 4.613281 22.390625 6.074219 C 22.398438 6.1875 22.402344 6.304688 22.402344 6.421875 L 22.402344 8.203125 C 22.402344 8.570312 22.242188 8.917969 21.964844 9.160156 C 21.691406 9.394531 21.332031 9.503906 20.976562 9.453125 L 20.898438 9.445312 C 19.902344 9.328125 18.902344 9.644531 18.15625 10.3125 C 17.488281 10.90625 17.078125 11.734375 17 12.621094 L 7 12.621094 C 6.921875 11.734375 6.511719 10.90625 5.84375 10.3125 C 5.097656 9.644531 4.101562 9.328125 3.101562 9.445312 C 3.09375 9.445312 3.089844 9.445312 3.085938 9.445312 C 3.082031 9.445312 3.078125 9.445312 3.074219 9.445312 Z M 6.773438 13.421875 L 17.226562 13.421875 C 17.871094 13.421875 18.398438 13.945312 18.398438 14.59375 L 18.398438 15.78125 C 18.398438 16.023438 18.203125 16.21875 17.960938 16.21875 L 6.042969 16.21875 C 5.800781 16.21875 5.601562 16.023438 5.601562 15.78125 L 5.601562 14.59375 C 5.601562 13.945312 6.128906 13.421875 6.773438 13.421875 Z M 6.199219 22.21875 C 5.847656 22.21875 5.480469 22.105469 5.304688 21.820312 L 7.097656 21.820312 C 6.921875 22.105469 6.554688 22.21875 6.199219 22.21875 Z M 17.800781 22.21875 C 17.445312 22.21875 17.078125 22.105469 16.902344 21.820312 L 18.695312 21.820312 C 18.519531 22.105469 18.152344 22.21875 17.800781 22.21875 Z M 22.585938 14.699219 C 22.132812 15.25 21.488281 15.578125 20.773438 15.625 L 20.398438 15.648438 L 20.398438 20.046875 C 20.398438 20.554688 19.886719 21.019531 19.328125 21.019531 L 4.671875 21.019531 C 4.113281 21.019531 3.601562 20.554688 3.601562 20.046875 L 3.601562 15.648438 L 3.226562 15.625 C 2.511719 15.578125 1.867188 15.25 1.414062 14.699219 C 0.933594 14.117188 0.722656 13.363281 0.824219 12.574219 C 0.976562 11.359375 1.972656 10.378906 3.191406 10.238281 C 3.292969 10.226562 3.398438 10.222656 3.5 10.222656 C 3.511719 10.222656 3.523438 10.222656 3.535156 10.222656 C 3.683594 10.222656 3.828125 10.238281 3.972656 10.261719 C 3.988281 10.265625 4 10.265625 4.015625 10.269531 C 4.160156 10.296875 4.296875 10.335938 4.433594 10.386719 C 4.457031 10.394531 4.480469 10.402344 4.503906 10.410156 C 4.636719 10.464844 4.765625 10.527344 4.886719 10.601562 C 4.90625 10.613281 4.925781 10.625 4.945312 10.636719 C 5.074219 10.71875 5.195312 10.804688 5.308594 10.90625 C 5.828125 11.371094 6.144531 12.019531 6.203125 12.714844 C 5.394531 12.960938 4.800781 13.707031 4.800781 14.59375 L 4.800781 15.78125 C 4.800781 16.464844 5.355469 17.019531 6.039062 17.019531 L 17.957031 17.019531 C 18.640625 17.019531 19.199219 16.464844 19.199219 15.78125 L 19.199219 14.59375 C 19.199219 13.707031 18.605469 12.960938 17.796875 12.714844 C 17.796875 12.6875 17.796875 12.65625 17.800781 12.628906 C 17.875 11.96875 18.191406 11.355469 18.6875 10.90625 C 19.269531 10.390625 20.015625 10.15625 20.800781 10.238281 C 20.804688 10.238281 20.808594 10.238281 20.808594 10.238281 C 22.027344 10.378906 23.023438 11.359375 23.175781 12.574219 C 23.273438 13.363281 23.066406 14.121094 22.585938 14.699219 Z M 22.585938 14.699219"/>
    <path d="M19.324219 11.546875C19.167969 11.703125 19.167969 11.957031 19.324219 12.113281 19.480469 12.269531 19.734375 12.269531 19.890625 12.113281 20.28125 11.722656 20.914062 11.722656 21.304688 12.113281 21.695312 12.503906 21.695312 13.136719 21.304688 13.527344 21.148438 13.683594 21.148438 13.9375 21.304688 14.09375 21.382812 14.171875 21.484375 14.210938 21.589844 14.210938 21.691406 14.210938 21.792969 14.171875 21.871094 14.09375 22.574219 13.390625 22.574219 12.25 21.871094 11.546875 21.167969 10.847656 20.027344 10.847656 19.324219 11.546875zM4.683594 11.546875C3.980469 10.847656 2.839844 10.847656 2.140625 11.546875 1.4375 12.25 1.4375 13.390625 2.140625 14.09375 2.21875 14.171875 2.320312 14.210938 2.421875 14.210938 2.523438 14.210938 2.625 14.171875 2.703125 14.09375 2.859375 13.9375 2.859375 13.683594 2.703125 13.527344 2.515625 13.339844 2.410156 13.085938 2.410156 12.820312 2.410156 12.554688 2.515625 12.300781 2.703125 12.113281 3.09375 11.722656 3.730469 11.722656 4.117188 12.113281 4.273438 12.269531 4.527344 12.269531 4.683594 12.113281 4.839844 11.957031 4.839844 11.703125 4.683594 11.546875zM14.117188 8.902344C14.195312 8.980469 14.296875 9.019531 14.402344 9.019531 14.503906 9.019531 14.605469 8.980469 14.683594 8.902344L15.199219 8.386719 15.71875 8.902344C15.796875 8.980469 15.898438 9.019531 16 9.019531 16.101562 9.019531 16.207031 8.980469 16.285156 8.902344 16.441406 8.746094 16.441406 8.496094 16.285156 8.339844L15.765625 7.820312 16.285156 7.304688C16.441406 7.148438 16.441406 6.894531 16.285156 6.738281 16.128906 6.582031 15.875 6.582031 15.71875 6.738281L15.199219 7.253906 14.683594 6.738281C14.527344 6.582031 14.273438 6.582031 14.117188 6.738281 13.960938 6.894531 13.960938 7.148438 14.117188 7.304688L14.636719 7.820312 14.117188 8.339844C13.960938 8.496094 13.960938 8.746094 14.117188 8.902344zM7.71875 8.902344C7.796875 8.980469 7.898438 9.019531 8.003906 9.019531 8.105469 9.019531 8.207031 8.980469 8.285156 8.902344L8.800781 8.386719 9.320312 8.902344C9.398438 8.980469 9.5 9.019531 9.601562 9.019531 9.703125 9.019531 9.808594 8.980469 9.882812 8.902344 10.042969 8.746094 10.042969 8.496094 9.882812 8.339844L9.367188 7.820312 9.882812 7.304688C10.042969 7.148438 10.042969 6.894531 9.882812 6.738281 9.726562 6.582031 9.476562 6.582031 9.320312 6.738281L8.800781 7.253906 8.285156 6.738281C8.128906 6.582031 7.875 6.582031 7.71875 6.738281 7.5625 6.894531 7.5625 7.148438 7.71875 7.304688L8.238281 7.820312 7.71875 8.339844C7.5625 8.496094 7.5625 8.746094 7.71875 8.902344zM7.71875 8.902344"/>
</svg>

<svg xmlns="http://www.w3.org/2000/svg" width="32" height="32" viewBox="0 0 24 24">
    <path d="M23.969 12.473a3.517 3.517 0 0 0-1.684-2.555 2.057 2.057 0 0 0 .914-1.715V6.422c0-.137-.004-.27-.012-.402-.117-1.72-1.042-3.243-2.53-4.172a5.685 5.685 0 0 0-5.134-.457l-.07.03a9.148 9.148 0 0 1-6.906 0l-.067-.03a5.697 5.697 0 0 0-5.132.453C1.855 2.777.934 4.3.816 6.024a6.589 6.589 0 0 0-.011.398v1.781a2.01 2.01 0 0 0 .925 1.703 3.527 3.527 0 0 0-1.699 2.567c-.129 1.011.145 1.984.766 2.738A3.348 3.348 0 0 0 2.8 16.379v3.668c0 .89.734 1.64 1.648 1.75.172.734.844 1.223 1.754 1.223.899 0 1.563-.48 1.746-1.2h8.106c.18.72.843 1.2 1.746 1.2.91 0 1.582-.489 1.754-1.223.91-.11 1.644-.863 1.644-1.75v-3.668a3.336 3.336 0 0 0 2.004-1.168c.621-.754.895-1.727.766-2.738zM3.074 9.445a1.327 1.327 0 0 1-1.054-.32 1.205 1.205 0 0 1-.418-.922V6.422c0-.117.003-.234.011-.348.102-1.46.887-2.758 2.157-3.55a4.888 4.888 0 0 1 4.406-.391l.074.027a9.903 9.903 0 0 0 7.504 0l.07-.027a4.883 4.883 0 0 1 4.41.39c1.27.793 2.055 2.09 2.157 3.551.007.114.011.23.011.348v1.781c0 .367-.16.715-.437.957a1.25 1.25 0 0 1-.988.293l-.079-.008A3.5 3.5 0 0 0 17 12.621H7a3.498 3.498 0 0 0-1.156-2.309 3.496 3.496 0 0 0-2.742-.867h-.028zm3.7 3.977h10.453c.644 0 1.171.523 1.171 1.172v1.187a.437.437 0 0 1-.437.438H6.043a.44.44 0 0 1-.441-.438v-1.187c0-.649.527-1.172 1.171-1.172zm-.575 8.797c-.351 0-.719-.114-.894-.399h1.793c-.176.285-.543.399-.899.399zm11.602 0c-.356 0-.723-.114-.899-.399h1.793c-.175.285-.543.399-.894.399zm4.785-7.52a2.538 2.538 0 0 1-1.813.926l-.375.023v4.399c0 .508-.511.973-1.07.973H4.672c-.559 0-1.07-.465-1.07-.973v-4.399l-.375-.023a2.538 2.538 0 0 1-1.813-.926c-.48-.582-.691-1.336-.59-2.125a2.72 2.72 0 0 1 2.367-2.336c.102-.011.207-.015.309-.015h.035c.149 0 .293.015.438.039.015.004.027.004.043.008.144.027.28.066.418.117l.07.023a2.693 2.693 0 0 1 .441.227c.13.082.25.168.364.27a2.73 2.73 0 0 1 .894 1.808 1.97 1.97 0 0 0-1.402 1.879v1.187c0 .684.554 1.239 1.238 1.239h11.918c.684 0 1.242-.555 1.242-1.239v-1.187a1.97 1.97 0 0 0-1.402-1.88c0-.027 0-.058.004-.085.074-.66.39-1.274.887-1.723a2.713 2.713 0 0 1 2.113-.668h.008a2.72 2.72 0 0 1 2.367 2.336c.097.79-.11 1.547-.59 2.125zm0 0"/>
    <path d="M19.324 11.547a.4.4 0 0 0 .567.566 1 1 0 1 1 1.414 1.414.4.4 0 0 0 .566.567 1.801 1.801 0 0 0 0-2.547c-.703-.7-1.844-.7-2.547 0zm0 0M4.684 11.547c-.704-.7-1.844-.7-2.543 0a1.801 1.801 0 0 0 0 2.547.396.396 0 0 0 .562 0 .4.4 0 0 0 0-.567 1 1 0 1 1 1.414-1.414.4.4 0 0 0 .567-.566zm0 0M14.117 8.902a.399.399 0 0 0 .567 0l.515-.515.52.515c.078.078.18.118.281.118.102 0 .207-.04.285-.118a.396.396 0 0 0 0-.562l-.52-.52.52-.515a.4.4 0 0 0-.566-.567l-.52.516-.515-.516a.4.4 0 0 0-.567.567l.52.515-.52.52a.396.396 0 0 0 0 .562zm0 0M7.719 8.902a.399.399 0 0 0 .566 0l.516-.515.52.515a.396.396 0 0 0 .562 0 .39.39 0 0 0 0-.562l-.516-.52.516-.515a.394.394 0 0 0 0-.567.396.396 0 0 0-.563 0l-.52.516-.515-.516a.4.4 0 0 0-.566.567l.52.515-.52.52a.396.396 0 0 0 0 .562zm0 0"/>
</svg>
